X: 5
T: Jimmy's Return
R: reel
M: 4/4
L: 1/8
K: Amin
|:e2AB cedc|BGBd gdBd|e2AB cedc|BcdB cA A2|
e2AB cedc|BGBd gdBG|ABcA Bcdf|edcB cA A2:||
|:e2ag egdc|BGBd gdBd|e2ag egdc|BcdB cA A2|
e2ag egdc|BGBd gdBG|ABcA Bcdf|edcB cA A2:||


Tune 1299	Setting 26697

